X: 1
%T: 月亮代表我的心
T: Y\`ueliang d\`aibi\vao w\vode x\=in
T: The Moon Represents My Heart
T: The Moon Mirrors My Heart
C: ??
F: http://hunanmifen.blogspot.com/2006/08/piano-music-sheet-moon-represent-my.html
M: 4/4
L: 1/8
K: D
zA, \
| "D"D3 F A3 D | "F#m"C3 F A3 A | "G"B3 c d3 B | "D"A6 ||
w: n\vi w\`en w\vo \`ai n\vi y\vou du\=o sh\=en, w\vo \`ai n\vi y\vou j\vi f\=en?
FE \
| "D"D3 D D2 FE | "G"D3 D D2 EF | "E7" E3 D B,2 FE- | E6 |]
w: w\vo-de q\'ing y\ve zh\=en, w\vo-de \`ai y\ve zh\=en, yu\`e-liang d\`ai-bi\vao w\vo-de x\=in.
zA, \
| "D"D3 F A3 D | "F#m"C3 F A3 A | "G"B3 c d3 B | "D"A6 ||
w: n\vi w\`en w\vo \`ai n\vi y\vou du\=o sh\=en, w\vo \`ai n\vi y\vou j\vi f\=en?
FE \
| "D"D3 D D2 FE | "G"D3 D D2 EF | "E7" E3 B, "A7"C2 DE | "D"D6 |]
w: w\vo-de  q\'ing b\`u y\'i, w\vo-de \`ai b\'u bi\`an, yu\`e-liang d\`ai-bi\vao w\vo-*de x\=in.
(FA) \
| "D"F3 E D2 A2 | "F#m"C6 B,C | "G"B,3 C B,2 A,2 | "D"F6 ||
w: q\=ing-*q\=ing de y\=i g\`e w\ven, y\vi-j\=ing d\va-d\`ong w\vo-de x\=in,
A2 \
| "D"F3 E D2 A2 | "F#m"C6 B,C | "E7"D3 D D2 EF | "A7"E6 |]
w: sh\=en-sh\=en de y\=i du\`an q\'ing, ji\`ao w\vo s\=i-ni\`an d\`ao-r\'u-*j\=in.
A,2 \
| "D"D3 F A3 D | "F#m"C3 F A3 A | "G"B3 c d3 B | "D"A6 ||
w: n\vi w\`en w\vo \`ai n\vi y\vou du\=o sh\=en, w\vo \`ai n\vi y\vou j\vi f\=en?
|: FE \
| "D"D3 D D2 FE | "G"D3 D D2 EF | "E7" E3 B, "A7"C2 DE | "D"D6 :|
w: n\vi q\`u xi\vang y\=i xi\vang, n\vi q\`u k\`an y\=i k\`an, yu\`e-liang d\`ai-bi\vao w\vo-*de x\=in.
